X: 18205
T: Humours Of Glendart, The
R: jig
M: 6/8
K: Dmajor
BAF AFE|FEF DFA|BAF AFD|FEE E2 A|
BAF AFE|FEF DFA|dcB AFE|FDD D2 A:|
def d2 B|ABA AFA|def d2 f|ede fdB|
def d2 B|ABA ABc|dcB AFE|FDD D2 A:|

